src/svg/upload-outline.svg

<svg version="1.2" baseProfile="tiny" xmlns="http://www.w3.org/2000/svg" width="24" height="24" viewBox="0 0 24 24"><path d="M20.986 17c0-.105-.004-.211-.038-.316l-2-6c-.093-.276-.302-.483-.56-.594.881-1.175.799-2.847-.269-3.914l-6.119-6.121-6.121 6.121c-1.067 1.067-1.149 2.739-.27 3.914-.256.109-.467.316-.559.594l-2 6c-.034.105-.038.211-.038.316-.012 0-.012 5-.012 5 0 .553.447 1 1 1h16c.553 0 1-.447 1-1 0 0 0-5-.014-5zm-13.693-9.41l4.707-4.707 4.707 4.707c.391.391.391 1.023 0 1.414-.379.377-1.035.377-1.414 0l-2.293-2.293v5.789c0 .552-.448 1-1 1s-1-.448-1-1v-5.789l-2.293 2.293c-.379.377-1.035.377-1.414 0-.391-.391-.391-1.025 0-1.414zm-.572 4.41h2.279v.5c0 1.654 1.346 3 3 3s3-1.346 3-3v-.5h2.279l1.666 5h-13.892l1.668-5zm-1.721 9v-3h14v3h-14z"/></svg>

<?xml version="1.0" encoding="iso-8859-1"?>
<!-- Generator: Adobe Illustrator 16.2.1, SVG Export Plug-In . SVG Version: 6.00 Build 0)  -->
<svg version="1.2" baseProfile="tiny" id="Layer_1" xmlns="http://www.w3.org/2000/svg" xmlns:xlink="http://www.w3.org/1999/xlink"
	 x="0px" y="0px" width="24px" height="24px" viewBox="0 0 24 24" xml:space="preserve">
<path d="M20.986,17c0-0.105-0.004-0.211-0.038-0.316l-2-6c-0.093-0.276-0.302-0.483-0.56-0.594c0.881-1.175,0.799-2.847-0.269-3.914
	L12,0.055L5.879,6.176C4.812,7.243,4.73,8.915,5.609,10.09c-0.256,0.109-0.467,0.316-0.559,0.594l-2,6
	C3.016,16.789,3.012,16.895,3.012,17C3,17,3,22,3,22c0,0.553,0.447,1,1,1h16c0.553,0,1-0.447,1-1C21,22,21,17,20.986,17z
	 M7.293,7.59L12,2.883l4.707,4.707c0.391,0.391,0.391,1.023,0,1.414c-0.379,0.377-1.035,0.377-1.414,0L13,6.711V12.5
	c0,0.552-0.448,1-1,1s-1-0.448-1-1V6.711L8.707,9.004c-0.379,0.377-1.035,0.377-1.414,0C6.902,8.613,6.902,7.979,7.293,7.59z
	 M6.721,12H9v0.5c0,1.654,1.346,3,3,3s3-1.346,3-3V12h2.279l1.666,5H5.053L6.721,12z M5,21v-3h14v3H5z"/>
</svg>
